X: 27392
T: Mockingbird Hill
R: waltz
M: 3/4
K: Dmajor
~A2|D3 F A/B/d|~f3 d AF|~G3 A .B.d|{a/}b6|
a3 g ec|A2 B/c/d e2|{e/}~f3 e dB|FA ~A2 ~A2|
D3 F A/B/d|~f3 d AF|~G3 A Bd|b4 _b2|
a3 g ec|A2 B/c/d e2|~f3 e dc|d4||
A/B/d|~f3 A fA|{f/}g2 f/g/f e/f/e|d2 ~G3 B|A4 a2|
~a3 g ec|A2 B/c/d e2|f ~f2 e dB|FA ~A2 ~A2|
ef ~f2 ~f2|g2 f/g/f e/f/e|d2 G3 B|A4 a2|
a3 g ec|A2 B/c/d e2|f ~f2 e dc|d4||
K: G Major
d/^c/=c|{A/}~B3 _B ~=B2|cB cA BG|{D/}~F3 D Fd|c3 D F/G/A|
dD cD BD|AD FA DF|G3 D Ge|d4 ^c=c|
B3 D Gc|B/c/B A/B/A G/A/G|F2 FD Fd|c3 D F/G/A|
d3 D B/c/d|c2 B2 A2|G3 F GA|G4||

